Papirus/64x64/apps/winefile.svg

<?xml version="1.0" encoding="UTF-8" standalone="no"?>
<svg xmlns="http://www.w3.org/2000/svg" height="64" width="64" version="1">
 <rect style="fill:#5895dc" rx="2.571" ry="2.55" height="34" width="48" y="3" x="8"/>
 <rect style="fill:#89e058" rx="2.571" ry="2.55" height="34" width="48" y="9" x="8"/>
 <rect style="fill:#ffcd54" rx="2.571" ry="2.55" height="34" width="48" y="15" x="8"/>
 <rect style="opacity:.2" rx="3" ry="3" height="40" width="56" y="22" x="4"/>
 <rect style="fill:#848484" rx="3" ry="3" height="40" width="56" y="21" x="4"/>
 <rect style="opacity:.2" rx="2" ry="2" height="6" width="20" y="38" x="22"/>
 <rect style="fill:#ececec" rx="2" ry="2" height="6" width="20" y="37" x="22"/>
 <path style="opacity:.1;fill:#ffffff" d="m10.572266 3c-1.4245718 0-2.572266 1.1380813-2.572266 2.5507812v1c0-1.4126999 1.1476942-2.5507812 2.572266-2.5507812h42.855468c1.424572 0 2.572266 1.1380813 2.572266 2.5507812v-1c0-1.4126999-1.147694-2.5507812-2.572266-2.5507812h-42.855468z"/>
 <path style="opacity:.1;fill:#ffffff" d="m10.572266 9c-1.4245718 0-2.572266 1.138081-2.572266 2.550781v1c0-1.4127 1.1476942-2.550781 2.572266-2.550781h42.855468c1.424572 0 2.572266 1.138081 2.572266 2.550781v-1c0-1.4127-1.147694-2.550781-2.572266-2.550781h-42.855468z"/>
 <path style="opacity:.1;fill:#ffffff" d="m10.572266 15c-1.4245718 0-2.572266 1.138081-2.572266 2.550781v1c0-1.4127 1.1476942-2.550781 2.572266-2.550781h42.855468c1.424572 0 2.572266 1.138081 2.572266 2.550781v-1c0-1.4127-1.147694-2.550781-2.572266-2.550781h-42.855468z"/>
 <path style="opacity:.1" d="m10.572266 8.000219c-1.4245718 0-2.572266 1.138081-2.572266 2.550781v1c0-1.4127 1.1476942-2.550781 2.572266-2.550781h42.855468c1.424572 0 2.572266 1.138081 2.572266 2.550781v-1c0-1.4127-1.147694-2.550781-2.572266-2.550781h-42.855468z"/>
 <path style="opacity:.1" d="m10.572266 14.000219c-1.4245718 0-2.572266 1.138081-2.572266 2.550781v1c0-1.4127 1.1476942-2.550781 2.572266-2.550781h42.855468c1.424572 0 2.572266 1.138081 2.572266 2.550781v-1c0-1.4127-1.147694-2.550781-2.572266-2.550781h-42.855468z"/>
 <circle style="fill:#48aeff" cx="47" r="16" cy="47"/>
 <path style="opacity:.2" d="m31.02539 47.5a16 16.001894 0 0 0 -0.02539 0.498106 16 16.001894 0 0 0 16 16.001894 16 16.001894 0 0 0 16 -16.001894 16 16.001894 0 0 0 -0.01758 -0.492246 16 16.001894 0 0 1 -15.982422 15.494022 16 16.001894 0 0 1 -15.974608 -15.499882z"/>
 <path d="m39.50022 39.00021h5.99998c0.2765 0 0.4998 0.22302 0.4998 0.50001v5.99998c0 0.2765-0.2233 0.4998-0.4998 0.4998h-6.00019c-0.27699 0-0.50001-0.2233-0.50001-0.4998v-6.00019c0-0.27699 0.22302-0.50001 0.50001-0.50001z" style="fill:#ffffff"/>
 <path d="m48.49978 39h5.99974c0.27719 0 0.50048 0.223027 0.50048 0.500025v6.000159c0 0.276509-0.22329 0.499816-0.49978 0.499816h-5.999739c-0.27719 0-0.500481-0.223307-0.500481-0.499816v-6.000159c0-0.277006 0.22299-0.500018 0.499983-0.500018z" style="fill:#ffffff"/>
 <path d="m39.50022 48.000209h5.99998c0.2765 0 0.4998 0.223021 0.4998 0.50001v5.999981c0 0.276499-0.2233 0.499799-0.4998 0.499799h-6.00019c-0.27699 0-0.50001-0.2233-0.50001-0.499799v-6.000191c0-0.27699 0.22302-0.50001 0.50001-0.50001z" style="fill:#ffffff"/>
 <path d="m48.49978 47.999999h5.99974c0.27719 0 0.50048 0.223027 0.50048 0.500026v6.000159c0 0.276509-0.22329 0.499815-0.49978 0.499815h-5.999739c-0.27719 0-0.500481-0.223306-0.500481-0.499815v-6.000159c0-0.277006 0.22299-0.500018 0.499983-0.500018z" style="fill:#ffffff"/>
</svg>

<svg xmlns="http://www.w3.org/2000/svg" width="64" height="64" version="1">
 <rect style="fill:#5895dc" width="48" height="34" x="8" y="3" rx="2.5" ry="2.5"/>
 <rect style="opacity:0.1" width="48" height="34" x="8" y="8" rx="2.5" ry="2.5"/>
 <rect style="fill:#89e058" width="48" height="34" x="8" y="9" rx="2.5" ry="2.5"/>
 <rect style="opacity:0.1" width="48" height="34" x="8" y="14" rx="2.5" ry="2.5"/>
 <rect style="fill:#ffcd54" width="48" height="34" x="8" y="15" rx="2.5" ry="2.5"/>
 <rect style="opacity:0.2" width="56" height="40" x="4" y="22" rx="3" ry="3"/>
 <rect style="fill:#8e8e8e" width="56" height="40" x="4" y="21" rx="3" ry="3"/>
 <rect style="opacity:0.2" width="20" height="6" x="22" y="38" rx="2" ry="2"/>
 <rect style="fill:#ececec" width="20" height="6" x="22" y="37" rx="2" ry="2"/>
 <path style="fill:#ffffff;opacity:0.1" d="M 10.5 3 C 9.115 3 8 4.115 8 5.5 L 8 6.5 C 8 5.115 9.115 4 10.5 4 L 53.5 4 C 54.885 4 56 5.115 56 6.5 L 56 5.5 C 56 4.115 54.885 3 53.5 3 L 10.5 3 z"/>
 <path style="fill:#ffffff;opacity:0.1" d="M 10.5,9 C 9.115,9 8,10.115 8,11.5 V 12.5 C 8,11.115 9.115,10 10.5,10 H 53.5 C 54.885,10 56,11.115 56,12.5 V 11.5 C 56,10.115 54.885,9 53.5,9 Z"/>
 <path style="fill:#ffffff;opacity:0.1" d="M 10.5,15 C 9.115,15 8,16.115 8,17.5 V 18.5 C 8,17.115 9.115,16 10.5,16 H 53.5 C 54.885,16 56,17.115 56,18.5 V 17.5 C 56,16.115 54.885,15 53.5,15 Z"/>
 <g transform="translate(15,1)">
  <circle style="opacity:0.2" cx="32" cy="47" r="16"/>
  <circle style="fill:#48aeff" cx="32" cy="46" r="16"/>
  <rect style="fill:#ffffff" width="7" height="7" x="24" y="38" rx=".5" ry=".5"/>
  <rect style="fill:#ffffff" width="7" height="7" x="33" y="38" rx=".5" ry=".5"/>
  <rect style="fill:#ffffff" width="7" height="7" x="33" y="47" rx=".5" ry=".5"/>
  <rect style="fill:#ffffff" width="7" height="7" x="24" y="47" rx=".5" ry=".5"/>
 </g>
</svg>
